images/diagram.svg

<svg width="64" height="64" viewBox="0 0 64 64" fill="none" xmlns="http://www.w3.org/2000/svg">
<g clip-path="url(#clip0_297080_1794)">
<path d="M29.8511 29.9292H31.9833V39.5242H29.8511V29.9292Z" fill="#4D5AE5"/>
<path d="M38.3799 34.1936H40.5121V39.5242H38.3799V34.1936Z" fill="#4D5AE5"/>
<path d="M21.3221 37.392H23.4544V39.5242H21.3221V37.392Z" fill="#4D5AE5"/>
<path d="M14.9255 36.3258H17.0578V39.5241H14.9255V36.3258Z" fill="#4D5AE5"/>
<path d="M3.19833 56.5819H54.3715C56.1378 56.5819 57.5699 55.1499 57.5699 53.3836V49.1192C57.5699 47.3529 56.1378 45.9209 54.3715 45.9209H53.3054V19.3343L59.3611 13.5977C60.7666 14.2905 62.4678 13.8699 63.3876 12.6003C64.308 11.3312 64.1789 9.58364 63.0826 8.46339C61.9863 7.34314 60.2424 7.17604 58.953 8.06776C57.6641 8.96 57.206 10.6513 57.8681 12.0719L53.3054 16.3973V13.9376C53.3054 12.1713 51.8734 10.7393 50.1071 10.7393H7.46276C5.6965 10.7393 4.26443 12.1713 4.26443 13.9376V45.9209H3.19833C1.43206 45.9209 0 47.3529 0 49.1192V53.3836C0 55.1499 1.43206 56.5819 3.19833 56.5819ZM60.7682 9.67317C61.3569 9.67317 61.8343 10.1505 61.8343 10.7393C61.8343 11.328 61.3569 11.8054 60.7682 11.8054C60.1794 11.8054 59.7021 11.328 59.7021 10.7393C59.7021 10.1505 60.1794 9.67317 60.7682 9.67317ZM6.39665 13.9376C6.39665 13.3489 6.874 12.8715 7.46276 12.8715H50.1071C50.6958 12.8715 51.1732 13.3489 51.1732 13.9376V18.4149L49.041 20.441V16.0698C49.041 15.4811 48.5636 15.0037 47.9749 15.0037H9.59498C9.00622 15.0037 8.52887 15.4811 8.52887 16.0698V42.7225C8.52887 43.3113 9.00622 43.7886 9.59498 43.7886H47.9749C48.5636 43.7886 49.041 43.3113 49.041 42.7225V23.3738L51.1732 21.3535V45.9209H6.39665V13.9376ZM15.9916 27.797C14.5492 27.7929 13.2826 28.7538 12.899 30.1442C12.5153 31.5346 13.1093 33.0094 14.3498 33.7455C15.5898 34.4815 17.1697 34.2967 18.2061 33.2936L21.912 35.1531C22.3425 35.3686 22.8646 35.2676 23.1847 34.9079L31.0624 26.0453L38.8062 31.848C39.2216 32.1593 39.8016 32.126 40.1784 31.7694L46.9088 25.3941V41.6564H10.6611V17.1359H46.9088V22.4566L39.3658 29.5997L31.5569 23.7455C31.1134 23.4134 30.4892 23.4758 30.1207 23.8897L22.1348 32.8751L19.1493 31.3821C19.1712 31.2541 19.1847 31.125 19.19 30.9953C19.19 29.2291 17.7579 27.797 15.9916 27.797ZM17.0577 30.9953C17.0577 31.5841 16.5804 32.0615 15.9916 32.0615C15.4029 32.0615 14.9255 31.5841 14.9255 30.9953C14.9255 30.4066 15.4029 29.9292 15.9916 29.9292C16.5804 29.9292 17.0577 30.4066 17.0577 30.9953ZM23.4544 48.0531H34.1155V49.1192C34.1155 49.7079 33.6381 50.1853 33.0494 50.1853H24.5205C23.9317 50.1853 23.4544 49.7079 23.4544 49.1192V48.0531ZM2.13222 49.1192C2.13222 48.5304 2.60957 48.0531 3.19833 48.0531H21.3222V49.1192C21.3222 50.8855 22.7542 52.3175 24.5205 52.3175H33.0494C34.8156 52.3175 36.2477 50.8855 36.2477 49.1192V48.0531H54.3715C54.9603 48.0531 55.4376 48.5304 55.4376 49.1192V53.3836C55.4376 53.9724 54.9603 54.4497 54.3715 54.4497H3.19833C2.60957 54.4497 2.13222 53.9724 2.13222 53.3836V49.1192Z" fill="#2E2F42"/>
</g>
<defs>
<clipPath id="clip0_297080_1794">
<rect width="64" height="64" fill="white"/>
</clipPath>
</defs>
</svg>

<svg xmlns="http://www.w3.org/2000/svg" width="64" height="64" fill="none"><g clip-path="url(#a)"><path fill="#4D5AE5" d="M29.8511 29.9292h2.1322v9.595h-2.1322v-9.595ZM38.3799 34.1936h2.1322v5.3306h-2.1322v-5.3306ZM21.3221 37.392h2.1323v2.1322h-2.1323V37.392ZM14.9255 36.3258h2.1323v3.1983h-2.1323v-3.1983Z"/><path fill="#2E2F42" d="M3.1983 56.5819h51.1732c1.7663 0 3.1984-1.432 3.1984-3.1983v-4.2644c0-1.7663-1.4321-3.1983-3.1984-3.1983h-1.0661V19.3343l6.0557-5.7366c1.4055.6928 3.1067.2722 4.0265-.9974.9204-1.2691.7913-3.0167-.305-4.137-1.0963-1.1202-2.8402-1.2873-4.1296-.3955-1.2889.8922-1.747 2.5835-1.0849 4.0041l-4.5627 4.3254v-2.4597c0-1.7663-1.432-3.1983-3.1983-3.1983H7.4628c-1.7663 0-3.1984 1.432-3.1984 3.1983v31.9833h-1.066C1.432 45.9209 0 47.3529 0 49.1192v4.2644c0 1.7663 1.432 3.1983 3.1983 3.1983ZM60.7682 9.6732c.5887 0 1.0661.4773 1.0661 1.0661 0 .5887-.4774 1.0661-1.0661 1.0661-.5888 0-1.0661-.4774-1.0661-1.0661 0-.5888.4773-1.0661 1.0661-1.0661ZM6.3967 13.9376c0-.5887.4773-1.0661 1.066-1.0661h42.6444c.5887 0 1.0661.4774 1.0661 1.0661v4.4773L49.041 20.441v-4.3712c0-.5887-.4774-1.0661-1.0661-1.0661h-38.38c-.5887 0-1.066.4774-1.066 1.0661v26.6527c0 .5888.4773 1.0661 1.066 1.0661h38.38c.5887 0 1.0661-.4773 1.0661-1.0661V23.3738l2.1322-2.0203v24.5674H6.3966V13.9376Zm9.5949 13.8594c-1.4424-.0041-2.709.9568-3.0926 2.3472-.3837 1.3904.2103 2.8652 1.4508 3.6013 1.24.736 2.8199.5512 3.8563-.4519l3.7059 1.8595a1.0659 1.0659 0 0 0 1.2727-.2452l7.8777-8.8626 7.7438 5.8027c.4154.3113.9954.278 1.3722-.0786l6.7304-6.3753v16.2623H10.6611V17.1359h36.2477v5.3207l-7.543 7.1431-7.8089-5.8542a1.0669 1.0669 0 0 0-1.4362.1442l-7.9859 8.9854-2.9855-1.493a3.0249 3.0249 0 0 0 .0407-.3868c0-1.7662-1.4321-3.1983-3.1984-3.1983Zm1.0661 3.1983c0 .5888-.4773 1.0662-1.0661 1.0662-.5887 0-1.0661-.4774-1.0661-1.0662 0-.5887.4774-1.0661 1.0661-1.0661.5888 0 1.0661.4774 1.0661 1.0661Zm6.3967 17.0578h10.6611v1.0661c0 .5887-.4774 1.0661-1.0661 1.0661h-8.5289c-.5888 0-1.0661-.4774-1.0661-1.0661v-1.0661ZM2.1322 49.1192c0-.5888.4774-1.0661 1.0661-1.0661h18.1239v1.0661c0 1.7663 1.432 3.1983 3.1983 3.1983h8.5289c1.7662 0 3.1983-1.432 3.1983-3.1983v-1.0661h18.1238c.5888 0 1.0661.4773 1.0661 1.0661v4.2644c0 .5888-.4773 1.0661-1.0661 1.0661H3.1983c-.5887 0-1.066-.4773-1.066-1.0661v-4.2644Z"/></g><defs><clipPath id="a"><path fill="#fff" d="M0 0h64v64H0z"/></clipPath></defs></svg>
